X:202
T:Reel 202
M:4/4
K:Dmaj
L:1/8
F|A2DE FAdF|ABAF GEEe|A2FA DFAd|AGFE FDD2|A2FA d2AF|AFdF FEEF|G2GE FGAc|d2AG FDD|E|FAdA FABA|FAdA FEEe|FAdA BABc|dBAG FDDE|FAdA FABA|FAdA BEEe|fABc defg|afge fdd|
